X:249
T: Lied zum langen Tanz der Ditmarsen
N: A0294
O: Europa, Mitteleuropa, Deutschland
N: Melodie wie A0293,nur im Tripeltakt.
R: Romanze, Ballade, Lied
M: 6/4
L: 1/4
K: C
C | C2CG2G | G2GG2
G | F2GA2G | G2FE2z |
F2EG2E | F2EG2
E | F2FG2E | D3C2

@@@ Tune index: 249
